dist/assets/icons/truck.svg

<svg width="209" height="106" viewBox="0 0 209 106" fill="none" xmlns="http://www.w3.org/2000/svg">
<path d="M44.5172 78.4228C36.4279 78.4228 30.1361 84.4552 30.1361 92.2113C30.1361 99.9674 36.4279 106 44.5172 106C52.6065 106 58.8983 99.9674 58.8983 92.2113C58.8983 84.4552 52.6065 78.4228 44.5172 78.4228ZM129.905 0H122.714V16.8048H149.679L129.905 0ZM1.37413 94.7967H19.3504C19.3504 94.7967 20.2492 68.9431 46.3148 68.9431C65.6393 68.9431 68.7852 94.7967 68.7852 94.7967H113.726V0H0.475403L1.37413 94.7967ZM171.25 78.4228C163.161 78.4228 156.869 84.4552 156.869 92.2113C156.869 99.9674 163.161 106 171.25 106C179.339 106 185.631 99.9674 185.631 92.2113C185.631 84.4552 178.89 78.4228 171.25 78.4228ZM154.173 21.5447H122.714V94.7967H149.679C149.679 94.7967 146.083 73.252 172.149 73.252C191.923 73.252 191.473 94.7967 191.473 94.7967H208.101L209 62.4797L154.173 21.5447ZM149.679 77.561H131.702V68.9431H149.679V77.561ZM147.881 62.0487L129.905 51.7073V27.5772H147.881L194.619 62.0487H147.881Z" fill="white" fill-opacity="0.4"/>
</svg>

<svg width="209" height="106" fill="none" xmlns="http://www.w3.org/2000/svg"><path d="M44.517 78.423c-8.09 0-14.38 6.032-14.38 13.788S36.426 106 44.516 106s14.381-6.033 14.381-13.789c0-7.756-6.292-13.788-14.38-13.788ZM129.905 0h-7.191v16.805h26.965L129.905 0ZM1.375 94.797H19.35s.9-25.854 26.965-25.854c19.324 0 22.47 25.854 22.47 25.854h44.941V0H.476l.898 94.797ZM171.25 78.423c-8.089 0-14.381 6.032-14.381 13.788S163.161 106 171.25 106s14.381-6.033 14.381-13.789c0-7.756-6.741-13.788-14.381-13.788Zm-17.077-56.878h-31.459v73.252h26.965s-3.596-21.545 22.47-21.545c19.774 0 19.324 21.545 19.324 21.545h16.628L209 62.48l-54.827-40.935Zm-4.494 56.016h-17.977v-8.618h17.977v8.618Zm-1.798-15.512-17.976-10.342v-24.13h17.976l46.738 34.472h-46.738Z" fill="#fff" fill-opacity=".4"/></svg>
